X:1
T:XIII. If that a sinner's sighes be Angel's foode
T:XIII. If that a sinner's sighes be Angel's foode
T:CANTUS.
T:John Dowland
C:John Dowland
L:1/8
M:4/4
K:F
V:1 treble 
V:1
 z16 | z16 | z4 z2 G2 d6 e2 | f2 d2 f6 e2 d6 c2 B4 A8 | z4 z2 G2 A6 B2 | c2 A2 c8 d4 | d4 ^c4 d8 | %7
w: ||If that a|sin- ners sighes be An- gels foode, *|Or that re-|pen- tant teares be|An- gels wine,|
 z8 z4 z2 A2 | B4 c4 d6 d2 | _e4 d2 d4 cB c4 | d12 z2 d2 | c4 A4 z2 B4 B2 | A2 G2 G8 ^F4 G8 |: z4 | %14
w: Ac-|cept O Lord in|this most pen- sive * *|moode, These|hear- ty sighes and|dole- full plaints of mine,||
 z4 z4 g4 | f8 _e4 d6 d2 e4 | d2 d4 cB c4 d8 z4 | z4 z4 z2 _e2 d8 c4 | %18
w: That|went with Pe- ter forth|most sin- ful- * * ly:|But not as|
 B6 B2 A4 z2 B4 G4 z2 c8 B3 c/d/ | A6 G2 !fermata!G8 :| %20
w: Pe- ter did, Weepe, weepe, weepe, weepe * *|bit- ter- ly.|

